icon/mp/jewelry-store.svg

<svg version="1.2" baseProfile="tiny" xmlns="http://www.w3.org/2000/svg" viewBox="0 0 50 50" overflow="inherit" height="1em" width="1em">
  <path d="M46.476 20.662l-.013-.101c-.028-.141-.08-.283-.127-.362l-6.336-10.199s-.808-1-1-1h-27l-8.12 10.853-.096.1-.013.047c-.064.101-.119.215-.168.35l-.033.097c-.048.166-.07.31-.064.526.007.14.032.279.077.424l.038.109c.051.129.114.247.188.352l19.631 24.867.04.057c.101.13.224.245.374.35l.114.071c.112.07.229.126.399.188l.111.037c.192.049.359.072.522.072.165 0 .326-.022.543-.078l.133-.047c.13-.046.247-.103.388-.19l.088-.055c.151-.107.272-.223.339-.314l19.656-24.893c.088-.114.162-.242.25-.469.048-.126.069-.248.08-.321l.015-.129.008-.102-.024-.24zm-10.54-.662l2.798-5.063 2.796 5.063h-5.594zm-1.678 3h6.638l-11.064 14.015 4.426-14.015zm-1.642-4.518l-4.041-5.482h7.07l-3.029 5.482zm-12.944 4.518h10.659l-5.331 16.877-5.328-16.877zm1.057-3l4.271-5.796 4.271 5.796h-8.542zm-3.008-1.972l-1.852-5.028h5.557l-3.705 5.028zm2.449 18.988l-11.065-14.016h6.639l4.426 14.016zm-7.505-22.044l1.853 5.028h-5.558l3.705-5.028z"/>
</svg>

<svg version="1.2" baseProfile="tiny" xmlns="http://www.w3.org/2000/svg" width="50" height="50" overflow="inherit"><path d="m46.476 20.662-.013-.101a1.27 1.27 0 0 0-.127-.362L40 10s-.808-1-1-1H12L3.88 19.853l-.096.1-.013.047a1.78 1.78 0 0 0-.168.35l-.033.097a1.575 1.575 0 0 0 .013.95l.038.109c.051.129.114.247.188.352L23.44 46.725l.04.057c.101.13.224.245.374.35l.114.071c.112.07.229.126.399.188l.111.037c.192.049.359.072.522.072.165 0 .326-.022.543-.078l.133-.047c.13-.046.247-.103.388-.19l.088-.055c.151-.107.272-.223.339-.314l19.656-24.893a1.747 1.747 0 0 0 .33-.79l.015-.129.008-.102-.024-.24zM35.936 20l2.798-5.063L41.53 20h-5.594zm-1.678 3h6.638L29.832 37.015 34.258 23zm-1.642-4.518L28.575 13h7.07l-3.029 5.482zM19.672 23h10.659L25 39.877 19.672 23zm1.057-3L25 14.204 29.271 20h-8.542zm-3.008-1.972L15.869 13h5.557l-3.705 5.028zm2.449 18.988L9.105 23h6.639l4.426 14.016zm-7.505-22.044L14.518 20H8.96l3.705-5.028z"/></svg>
